X: 29050
T: Neil Gow's Lamentation For James Moray Esq. Of Abercairny
R: strathspey
M: 4/4
K: Gmajor
B,/A,/||"Segno"G,>B,D>{F/}G E>{F/}GD>G|A>B c/B/TA/G/ ~E2 E>{F/}G|G,>B,D>{F/}G E>{F/}G D{f/}g/e/|{^c/}d>G d/=c/TB/A/ {F/}TG2 G||
B/c/|{c/}de/f/ ~g>d {f/}e>d{f/}g>B|ca/c/ Bg/G/ {c/B/}A2 A>B|G,>B,D>{F/}G E{F/}G D{f/}g/e/|{^c/}d>G Td/=c/TB/A/ {F/}G2 G/A/B/c/|
{c/}de/f/ ~g>d {f/}e>dg>B|ca/c/ Bg/G/ {c/B/}A2 AB/c/|.e/.d/.c/.B/ .d/.c/.B/.A/ .c/.B/.A/.G/ .B/.A/.G/.F/|.A/.G/.F/.E/ {F/E/}.D/.E/.D/.B,/ G,2 "Dal Segno"G,/E/D/A,/||

